teeny/solid/clipboard-minus.svg

<svg width="15" height="15" viewBox="0 0 15 15" fill="none" xmlns="http://www.w3.org/2000/svg">
<path fill-rule="evenodd" clip-rule="evenodd" d="M4 0H11V1H14V13.5C14 14.3284 13.3284 15 12.5 15H2.5C1.67157 15 1 14.3284 1 13.5V1H4V0ZM5 1H10V2.5C10 2.77614 9.77614 3 9.5 3H5.5C5.22386 3 5 2.77614 5 2.5V1ZM5 9H10V8H5V9Z" fill="black"/>
</svg>

<svg viewBox="0 0 15 15" xmlns="http://www.w3.org/2000/svg"><path fill-rule="evenodd" d="M4 0h7v1h3v12.5c0 .82-.68 1.5-1.5 1.5h-10c-.83 0-1.5-.68-1.5-1.5V1h3V0Zm1 1h5v1.5c0 .27-.23.5-.5.5h-4c-.28 0-.5-.23-.5-.5V1Zm0 8h5V8H5v1Z"/></svg>
